X: 21202
T: Les SOUVENIRS QUADRILLES No. 1.--La Pantalon.
C: Copyright.--R. S.
P: Ma belle amie.
%R: jig
B: W. Hamilton "Universal Tune-Book" Vol. 2 Glasgow 1846 p.120 #2
S: http://s3-eu-west-1.amazonaws.com/itma.dl.printmaterial/book_pdfs/hamiltonvol2web.pdf
Z: 2016 John Chambers <jc:trillian.mit.edu>
M: 6/8
L: 1/8
K: A
% - - - - - - - - - - - - - - - - - - - - - - - - -
a |\
g2f e2^d | e3 c2c | d2c d2^d | e3 cea |\
g2f e2^d | e3 c2c | d2c d2e | A2z [a2c2]z |]
K: D
A/A/ |\
ABc de=f | ^f3- fba | a3 eba | a3- afd |\
ABc de=f | ^f3- fba | aef gBc | d3- d2"^D.C."z |]
F/G/ |\
ABA Ade | f3- fed | ABA Ade | f3- fed |\
efe eBe | g3- gfe | AAA Afe | d3- d2"^D.C."z |]
% - - - - - - - - - - - - - - - - - - - - - - - - -

%%sep 1 1 500
%%sep 1 1 500

